public/icons/img/travel-notice.svg

<?xml version="1.0" encoding="UTF-8"?>
<svg width="56px" height="57px" viewBox="0 0 56 57" version="1.1" xmlns="http://www.w3.org/2000/svg" xmlns:xlink="http://www.w3.org/1999/xlink">
    <title>UI Elements/Icon / Account Settings / Travel Notice</title>
    <defs>
        <path d="M37.5276951,23.0080851 L37.5276951,15.440898 L37.5276951,15.3456166 L37.5276951,15.1525503 L37.5276951,13.0823319 C37.5276951,9.42910525 34.6389134,3.40540541 31.077358,3.40540541 C27.5158026,3.40540541 24.6270209,9.42897688 24.6270209,13.0823319 L24.6270209,22.7897029 L5.17143645,33.734491 C4.22483179,34.235964 3.74594595,34.5493645 3.74594595,35.5448004 L3.74594595,41.7003531 C3.74594595,42.6982924 4.19546369,43.5106625 5.17143645,43.5106625 L24.6270209,37.7964061 L26.4268619,47.8319058 L20.2156489,50.1925206 C19.7557588,50.4738624 19.7142653,52.3885941 20.0911683,55.9367155 C20.1495222,56.4858999 20.6420177,56.8838109 21.1912037,56.825473 C21.2262085,56.8217546 21.2609925,56.8161904 21.2954105,56.8088037 L31.2214433,54.678493 L31.2214433,54.678493 L40.6705107,56.8020803 C41.2093448,56.9231452 41.7443182,56.5845075 41.8654144,56.0456805 C41.8720292,56.0162478 41.8773086,55.9865308 41.8812366,55.9566208 C42.3173072,52.6361168 42.3277907,50.8320066 41.9126868,50.5442904 L35.6106486,47.8319058 L37.5198014,37.9694391 C43.2101287,39.6020759 47.4778741,40.8265535 50.3230377,41.6428719 C51.7639053,42.0562776 53.9252067,42.6763861 56.8069419,43.5031974 C57.7829147,43.5031974 58.2324324,42.6933306 58.2324324,41.692888 L58.2324324,35.5373353 C58.2324324,34.5494095 57.7584308,34.2335376 56.8118262,33.7345359 L37.5276951,23.0080851 Z" id="path-1"></path>
    </defs>
    <g id="Iconography-&amp;-Interface-Details" stroke="none" stroke-width="1" fill="none" fill-rule="evenodd">
        <g id="Icons" transform="translate(-1295.000000, -703.000000)">
            <g id="UI-Elements/Icon-/-Account-Settings-/-Travel-Notice" transform="translate(1292.000000, 700.000000)">
                <g id="Group">
                    <rect id="Rectangle" x="-1.39790957e-13" y="5.91610094e-14" width="63" height="63"></rect>
                    <mask id="mask-2" fill="white">
                        <use xlink:href="#path-1"></use>
                    </mask>
                    <use id="Mask-2" fill="#00B16E" fill-rule="nonzero" xlink:href="#path-1"></use>
                    <polygon id="Rectangle" fill="#004B2E" mask="url(#mask-2)" points="35.5864865 47.8459459 44.7810811 47.8459459 42.4325424 57.4346381 32.5254256 54.9715166"></polygon>
                    <polygon id="Rectangle" fill="#004B2E" mask="url(#mask-2)" points="17.1972973 47.8459459 26.4268619 47.8319058 29.4751845 55.0867105 19.6413848 58.0873006"></polygon>
                    <rect id="Rectangle" fill="#015B44" opacity="0.502248" mask="url(#mask-2)" x="21.7945946" y="20.2621622" width="3.06486486" height="19.9216216"></rect>
                </g>
                <path d="M43.75,22.75 L50.75,26.6237645 L50.75,29.3691733 C50.75,29.921458 50.3022847,30.3691733 49.75,30.3691733 L44.75,30.3691733 C44.1977153,30.3691733 43.75,29.921458 43.75,29.3691733 L43.75,22.75 L43.75,22.75 Z" id="Rectangle" fill="#004B2E" fill-rule="nonzero" transform="translate(47.250000, 26.559587) rotate(-180.000000) translate(-47.250000, -26.559587) "></path>
                <path d="M12.25,26.6744356 L19.25,22.75 L19.25,28.748765 C19.25,29.3010497 18.8022847,29.748765 18.25,29.748765 L15.8027421,29.748765 L15.8027421,29.748765 L13.25,29.748765 C12.6977152,29.748765 12.25,29.3010497 12.25,28.748765 L12.25,26.6744356 L12.25,26.6744356 Z" id="Rectangle-Copy" fill="#004B2E" fill-rule="nonzero" transform="translate(15.750000, 26.249382) rotate(-180.000000) translate(-15.750000, -26.249382) "></path>
                <path d="M30.7404885,47.25 L32.3154885,47.25 L32.3154885,59.0625 C32.3154885,59.4974242 31.9629128,59.85 31.5279885,59.85 C31.0930643,59.85 30.7404885,59.4974242 30.7404885,59.0625 L30.7404885,47.25 L30.7404885,47.25 Z" id="Rectangle" fill="#004B2E"></path>
                <polygon id="Path" fill="#015B44" opacity="0.496070499" points="26.4268619 47.8319058 29.4751845 55.0514603 26.9178777 55.6078064 24.3605708 48.6159947"></polygon>
                <path d="M31.15,6.69372457 C33.2178064,6.69372457 36.05,12.9339484 36.05,10.866142 C36.05,8.79833562 33.2451331,5.25 31.1773267,5.25 C29.1095203,5.25 26.25,8.79833562 26.25,10.866142 C26.25,12.9339484 29.0821936,6.69372457 31.15,6.69372457 Z" id="Oval" fill="#004B2E"></path>
            </g>
        </g>
    </g>
</svg>

<svg xmlns="http://www.w3.org/2000/svg" xmlns:xlink="http://www.w3.org/1999/xlink" width="56" height="57"
     xmlns:v="https://vecta.io/nano">
    <defs>
        <path d="M37.528 23.008v-9.926c0-3.653-2.89-9.677-6.45-9.677s-6.45 6.024-6.45 9.677V22.8L5.17 33.734c-.947.5-1.425.815-1.425 1.8V41.7c0 .998.45 1.8 1.425 1.8l19.456-5.714 1.8 10.035-6.21 2.36c-.46.28-.5 2.196-.124 5.744a1 1 0 0 0 1.204.872l9.926-2.13 9.45 2.124a1 1 0 0 0 1.211-.845c.436-3.32.447-5.125.03-5.412l-6.302-2.712 1.91-9.862 19.287 5.534c.976 0 1.425-.8 1.425-1.8v-6.156c0-.988-.474-1.304-1.42-1.803L37.528 23.008z"
              id="A"/>
    </defs>
    <g transform="translate(-3 -3)" fill-rule="evenodd">
        <mask id="B" fill="#fff">
            <use xlink:href="#A"/>
        </mask>
        <use fill="#00b16e" fill-rule="nonzero" xlink:href="#A"/>
        <path mask="url(#B)" d="M35.586 47.846h9.195l-2.35 9.6-9.907-2.463zm-18.39 0l9.23-.014 3.048 7.255-9.834 3z"
              fill="#004b2e"/>
        <path fill="#015b44" opacity=".502" mask="url(#B)" d="M21.795 20.262h3.065v19.922h-3.065z"/>
        <path d="M50.75 30.37l-7-3.874V23.75a1 1 0 0 1 1-1h5a1 1 0 0 1 1 1v6.62zm-31.5-4.546l-7 3.924v-6a1 1 0 0 1 1-1h5a1 1 0 0 1 1 1v2.074z"
              fill-rule="nonzero" fill="#004b2e"/>
        <path d="M30.74 47.25h1.575v11.813a.79.79 0 0 1-.788.788.79.79 0 0 1-.787-.788V47.25z" fill="#004b2e"/>
        <path fill="#015b44" opacity=".496" d="M26.427 47.832l3.048 7.22-2.557.556-2.557-6.992z"/>
        <path d="M31.15 6.694c2.068 0 4.9 6.24 4.9 4.172S33.245 5.25 31.177 5.25s-4.927 3.548-4.927 5.616 2.832-4.172 4.9-4.172z"
              fill="#004b2e"/>
    </g>
</svg>
